content/themes/dude/svg/logos/rakennusliitto.svg

<svg width="130" height="52" viewBox="0 0 130 52" fill="none" xmlns="http://www.w3.org/2000/svg">
<path d="M59.5195 0.204651L49.692 9.92662V29.6966H69.6766L79.5041 19.9746V0.204651H59.5195ZM60.0812 3.44837L65.8344 9.1398H54.3264L60.0796 3.44837H60.0812ZM52.4077 11.8263H58.7241V18.8618L52.4077 25.1104V11.8263ZM67.7562 27.0116H54.328L60.6444 20.763H67.7562V27.0116ZM67.7562 18.075H61.4398V11.8263H67.7562V18.075ZM69.1149 8.58413L63.3617 2.8927H74.8696L69.1164 8.58413H69.1149ZM76.7884 18.8618L70.4719 25.1104V11.0395L76.7884 4.79086V18.8618Z" fill="#1E1E1E"/>
<path d="M2.78584 44.3875V50.9576H0.0980225V35.6039H6.12976C8.99863 35.6039 11.0319 37.0122 11.0319 39.6941C11.0319 41.8173 9.85743 42.823 8.57 43.27C10.1514 43.8517 10.7394 45.058 10.7394 47.025V47.3832C10.7394 48.7686 10.8075 50.0881 10.9654 50.9591H8.29921C8.07329 50.333 8.02841 49.1482 8.02841 47.3618V47.0036C8.02841 45.1039 7.32744 44.389 5.11467 44.389H2.78739L2.78584 44.3875ZM2.78584 42.2199H5.33904C7.01023 42.2199 8.29921 41.7729 8.29921 39.9176C8.29921 38.4205 7.2377 37.7715 5.76922 37.7715H2.78739V42.2184L2.78584 42.2199Z" fill="#1E1E1E"/>
<path d="M21.8993 48.1211C21.8993 48.9033 21.9441 50.2213 22.0571 50.9591H19.7081C19.6184 50.6009 19.5503 49.9304 19.5271 49.4391C19.0753 50.4448 17.9457 51.1597 16.2064 51.1597C13.3375 51.1597 12.3658 49.3487 12.3658 47.6511C12.3658 45.707 13.6981 43.9191 17.7878 43.9191H19.2795V43.0021C19.2795 42.0194 18.9855 41.1468 17.4273 41.1468C15.9588 41.1468 15.5302 41.8617 15.394 42.846H12.8191C12.9553 40.9907 14.0617 39.2471 17.4737 39.2471C20.1167 39.2471 21.9023 40.1855 21.9023 42.9577V48.1211H21.8993ZM17.811 45.6626C15.4838 45.6626 15.0551 46.601 15.0551 47.4735C15.0551 48.3461 15.5967 49.1268 16.8625 49.1268C18.8277 49.1268 19.3708 47.8088 19.3708 45.9091V45.6626H17.811Z" fill="#1E1E1E"/>
<path d="M26.6203 44.4548C27.524 43.3603 29.3314 41.1912 30.6869 39.4706H33.7136C32.5391 40.856 31.0706 42.4434 29.8049 43.8961C31.1372 46.0193 32.7418 48.7012 34.0974 50.9576H31.0242C30.2103 49.4819 28.9229 47.2256 28.0424 45.6611C27.9062 45.8172 26.755 47.0021 26.6188 47.1582V50.9576H23.9526V34.687H26.6188V44.4533L26.6203 44.4548Z" fill="#1E1E1E"/>
<path d="M36.5159 45.7958C36.4927 47.495 37.1937 49.0809 39.0243 49.0809C40.5825 49.0809 41.0575 48.0751 41.2386 47.5394H43.8599C43.3631 49.2829 42.0757 51.1597 38.9345 51.1597C35.2517 51.1597 33.8281 48.5451 33.8281 45.2156C33.8281 42.3776 35.2517 39.2487 39.0691 39.2487C42.8866 39.2487 44.0161 42.0194 44.0161 44.8804C44.0161 44.9922 43.9929 45.6397 43.9713 45.7973H36.5159V45.7958ZM41.4181 44.0079C41.35 42.5108 40.7403 41.2586 39.0227 41.2586C37.1024 41.2586 36.6273 42.8674 36.5608 44.0079H41.4181Z" fill="#1E1E1E"/>
<path d="M45.6657 43.0465C45.6657 40.6769 45.6425 39.962 45.6208 39.4706H48.2189C48.2637 39.6712 48.3086 40.5437 48.3086 41.0581C48.7837 40.1197 49.8668 39.2471 51.6077 39.2471C53.9566 39.2471 55.2905 40.6769 55.2905 43.4706V50.9576H52.6243V43.9405C52.6243 42.5322 52.2173 41.4377 50.6808 41.4377C49.0545 41.4377 48.3318 42.4878 48.3318 44.6339V50.9591H45.6657V43.0465Z" fill="#1E1E1E"/>
<path d="M57.4584 43.0465C57.4584 40.6769 57.4351 39.962 57.4135 39.4706H60.0116C60.0564 39.6712 60.1013 40.5437 60.1013 41.0581C60.5763 40.1197 61.6595 39.2471 63.4003 39.2471C65.7493 39.2471 67.0831 40.6769 67.0831 43.4706V50.9576H64.417V43.9405C64.417 42.5322 64.01 41.4377 62.4735 41.4377C60.8471 41.4377 60.1245 42.4878 60.1245 44.6339V50.9591H57.4584V43.0465Z" fill="#1E1E1E"/>
<path d="M78.6499 47.6067C78.6499 49.1941 78.6731 50.3774 78.6948 50.9591H76.1199C76.0518 50.6239 76.0302 50.0651 76.007 49.4176C75.3524 50.6468 74.2677 51.1612 72.7311 51.1612C70.5849 51.1612 69.1613 49.909 69.1613 47.1613V39.4737H71.8042V46.6928C71.8042 48.0108 72.2561 48.9722 73.6797 48.9722C75.1033 48.9722 75.9837 48.0782 75.9837 45.8877V39.4737H78.6499V47.6083V47.6067Z" fill="#1E1E1E"/>
<path d="M82.7397 47.495C82.9207 48.5895 83.7114 49.2156 84.954 49.2156C86.1965 49.2156 86.8062 48.6568 86.8062 47.8516C86.8062 47.0021 86.1052 46.6224 84.2762 46.1081C81.2712 45.2815 80.5486 44.2314 80.5486 42.621C80.5486 41.1453 81.4971 39.2456 84.7729 39.2456C87.778 39.2456 88.9973 40.7871 89.1335 42.6654H86.5354C86.4225 41.9505 86.0155 41.1897 84.66 41.1897C83.6666 41.1897 83.1466 41.6367 83.1466 42.396C83.1466 43.0894 83.5985 43.4246 85.3826 43.8931C88.4774 44.6753 89.426 45.7698 89.426 47.6037C89.426 49.883 87.5289 51.1566 84.8627 51.1566C82.1965 51.1566 80.3892 49.9503 80.1416 47.4919H82.7397V47.495Z" fill="#1E1E1E"/>
<path d="M90.9857 50.9591V34.6885H93.6519V50.9591H90.9857Z" fill="#1E1E1E"/>
<path d="M95.843 37.349V34.69H98.5091V37.349H95.843ZM95.843 39.4706H98.5091V50.9576H95.843V39.4706Z" fill="#1E1E1E"/>
<path d="M100.7 37.349V34.69H103.366V37.349H100.7ZM100.7 39.4706H103.366V50.9576H100.7V39.4706Z" fill="#1E1E1E"/>
<path d="M117.757 41.5494V39.4706H115.588V36.2744H112.945V39.4706H108.946V36.2744H106.303V39.4706H104.586V41.5494H106.303V48.2098C106.303 50.2657 107.071 51.0923 109.127 51.0923C109.556 51.0923 110.347 51.0479 110.89 50.8688V49.0135C110.574 49.0579 110.415 49.0809 110.122 49.0809C109.151 49.0809 108.948 48.7227 108.948 47.8746V41.5494H112.946V48.2098C112.946 50.2657 113.714 51.0923 115.77 51.0923C116.199 51.0923 116.99 51.0479 117.533 50.8688V49.0135C117.217 49.0579 117.058 49.0809 116.765 49.0809C115.794 49.0809 115.591 48.7227 115.591 47.8746V41.5494H117.76H117.757Z" fill="#1E1E1E"/>
<path d="M129.098 45.0365C129.098 48.3889 127.54 51.1597 123.676 51.1597C119.812 51.1597 118.344 48.2313 118.344 45.1024C118.344 42.1969 119.993 39.2471 123.811 39.2471C127.402 39.2471 129.096 41.8617 129.096 45.035L129.098 45.0365ZM121.055 45.058C121.055 47.5608 121.982 49.0809 123.789 49.0809C125.596 49.0809 126.41 47.5838 126.41 45.058C126.41 42.7113 125.53 41.3474 123.699 41.3474C121.982 41.3474 121.056 42.823 121.056 45.058H121.055Z" fill="#1E1E1E"/>
</svg>

<svg class="is-bigger" width="130" height="52" viewBox="0 0 130 52" fill="none" xmlns="http://www.w3.org/2000/svg"><path d="M59.52.205l-9.828 9.722v19.77h19.985l9.827-9.722V.205H59.52zm.561 3.243l5.753 5.692H54.326l5.754-5.692h.001zm-7.673 8.378h6.316v7.036l-6.316 6.248V11.826zm15.348 15.186H54.328l6.316-6.249h7.112v6.249zm0-8.937H61.44v-6.249h6.316v6.249zm1.359-9.49l-5.753-5.692H74.87l-5.754 5.691h-.001zm7.673 10.277l-6.316 6.248V11.04l6.316-6.25v14.072zM2.786 44.388v6.57H.098V35.604H6.13c2.869 0 4.902 1.408 4.902 4.09 0 2.123-1.175 3.129-2.462 3.576 1.581.582 2.17 1.788 2.17 3.755v.358c0 1.386.067 2.705.225 3.576H8.3c-.226-.626-.27-1.81-.27-3.597v-.358c0-1.9-.702-2.615-2.914-2.615H2.787l-.001-.002zm0-2.168h2.553c1.671 0 2.96-.447 2.96-2.302 0-1.498-1.061-2.146-2.53-2.146H2.787v4.446l-.001.002zM21.9 48.121c0 .782.044 2.1.157 2.838h-2.349c-.09-.358-.158-1.029-.18-1.52-.453 1.006-1.582 1.72-3.322 1.72-2.868 0-3.84-1.81-3.84-3.508 0-1.944 1.332-3.732 5.422-3.732h1.491v-.917c0-.983-.294-1.855-1.852-1.855-1.468 0-1.897.715-2.033 1.699h-2.575c.136-1.855 1.243-3.599 4.655-3.599 2.643 0 4.428.938 4.428 3.71v5.164H21.9zm-4.089-2.458c-2.327 0-2.756.938-2.756 1.81 0 .873.542 1.654 1.808 1.654 1.965 0 2.508-1.318 2.508-3.218v-.246h-1.56zM26.62 44.455c.904-1.095 2.711-3.264 4.067-4.984h3.027c-1.175 1.385-2.643 2.972-3.91 4.425 1.333 2.123 2.938 4.805 4.293 7.062h-3.073c-.814-1.476-2.101-3.732-2.982-5.297-.136.156-1.287 1.341-1.423 1.497v3.8h-2.666V34.687h2.666v9.766l.001.002z" fill="#1E1E1E"/><path d="M36.516 45.796c-.023 1.699.678 3.285 2.508 3.285 1.559 0 2.033-1.006 2.215-1.542h2.62c-.496 1.744-1.783 3.62-4.925 3.62-3.682 0-5.106-2.614-5.106-5.943 0-2.838 1.424-5.967 5.241-5.967 3.818 0 4.947 2.77 4.947 5.631 0 .112-.023.76-.045.917h-7.455v-.001zm4.902-1.788c-.068-1.497-.678-2.75-2.395-2.75-1.92 0-2.396 1.61-2.462 2.75h4.857zM45.666 43.047c0-2.37-.023-3.085-.045-3.576h2.598c.045.2.09 1.073.09 1.587.475-.938 1.558-1.81 3.299-1.81 2.349 0 3.683 1.429 3.683 4.223v7.487h-2.667V43.94c0-1.409-.407-2.503-1.943-2.503-1.627 0-2.35 1.05-2.35 3.196v6.325h-2.665v-7.913zM57.458 43.047c0-2.37-.023-3.085-.044-3.576h2.598c.044.2.09 1.073.09 1.587.474-.938 1.558-1.81 3.298-1.81 2.35 0 3.683 1.429 3.683 4.223v7.487h-2.666V43.94c0-1.409-.407-2.503-1.944-2.503-1.626 0-2.349 1.05-2.349 3.196v6.325h-2.666v-7.913zM78.65 47.607c0 1.587.023 2.77.045 3.352H76.12c-.068-.335-.09-.894-.113-1.541-.655 1.229-1.74 1.743-3.276 1.743-2.146 0-3.57-1.252-3.57-4v-7.687h2.643v7.219c0 1.318.452 2.28 1.876 2.28 1.423 0 2.304-.895 2.304-3.085v-6.414h2.666v8.134-.001zM82.74 47.495c.18 1.095.971 1.72 2.214 1.72 1.243 0 1.852-.558 1.852-1.363 0-.85-.7-1.23-2.53-1.744-3.005-.826-3.727-1.877-3.727-3.487 0-1.476.948-3.375 4.224-3.375 3.005 0 4.224 1.541 4.36 3.42h-2.598c-.112-.715-.52-1.476-1.875-1.476-.993 0-1.513.447-1.513 1.206 0 .693.451 1.029 2.236 1.497 3.094.782 4.043 1.877 4.043 3.71 0 2.28-1.897 3.554-4.563 3.554-2.666 0-4.474-1.207-4.721-3.665h2.598v.003zM90.986 50.96V34.687h2.666V50.96h-2.666zM95.843 37.349V34.69h2.666v2.659h-2.666zm0 2.122h2.666v11.487h-2.666V39.47zM100.7 37.349V34.69h2.666v2.659H100.7zm0 2.122h2.666v11.487H100.7V39.47zM117.757 41.55v-2.08h-2.169v-3.196h-2.643v3.197h-3.999v-3.197h-2.643v3.197h-1.717v2.078h1.717v6.66c0 2.057.768 2.883 2.824 2.883.429 0 1.22-.044 1.763-.223v-1.855c-.316.044-.475.067-.768.067-.971 0-1.174-.358-1.174-1.206v-6.326h3.998v6.66c0 2.057.768 2.883 2.824 2.883.429 0 1.22-.044 1.763-.223v-1.855c-.316.044-.475.067-.768.067-.971 0-1.174-.358-1.174-1.206v-6.326h2.169-.003zM129.098 45.036c0 3.353-1.558 6.124-5.422 6.124s-5.332-2.929-5.332-6.058c0-2.905 1.649-5.855 5.467-5.855 3.591 0 5.285 2.615 5.285 5.788l.002.002zm-8.043.022c0 2.503.927 4.023 2.734 4.023s2.621-1.497 2.621-4.023c0-2.347-.88-3.71-2.711-3.71-1.717 0-2.643 1.475-2.643 3.71h-.001z" fill="#1E1E1E"/></svg>
